CN4T1/185/aimg/huevo.svg

<svg clip-rule="evenodd" fill-rule="evenodd" stroke-linejoin="round" stroke-miterlimit="2" viewBox="0 0 272 354" xmlns="http://www.w3.org/2000/svg"><g fill-rule="nonzero"><path d="m0-28.671c-2.631-4.278-4.907-8.214-8.745-11.594-.421-.371.177-.955.601-.614 3.723 2.989 7.503 7.214 8.849 11.901.123.428-.476.679-.705.307m2.107 2.442c.528.912 1.243 2.159 1.036 3.246-.093.487-.759.509-.999.142-.27-.413-.337-.894-.468-1.361-.139-.497-.318-.978-.536-1.446-.302-.645.596-1.221.967-.581m1.883 6.63c.825-.009.838 1.271.014 1.281-.824.009-.838-1.271-.014-1.281m-23.893 32.251c-.463.175-1.009-.003-1.487-.07-.605-.084-.467-1.096.131-1.06.488.029 1.038-.031 1.463.236.37.233.287.744-.107.894m-3.97-5.755c-2.013.168-4.178-.316-6.204-.404-.52-.022-.529-.776-.009-.808 2.002-.124 4.394-.347 6.326.301.504.17.41.868-.113.911m-.233 3.072c-.507.063-.978-.015-1.484-.075-.594-.071-.643-.985-.011-.961.55.022 1.07.021 1.601.175.504.146.363.803-.106.861m-6.965-8.234c2.152.213 4.331.031 6.469.274.405.046.59.676.114.777-2.156.451-4.533.027-6.659-.438-.339-.074-.275-.648.076-.613m-.735-4.985c1.198.03 2.623-.142 3.761.274.401.147.454.722.009.861-1.157.361-2.556.125-3.756.095-.791-.02-.806-1.25-.014-1.23m-.851-3.705c.815-.039 1.611-.079 2.426-.029.705.044.715 1.036.012 1.096-.813.069-1.61.048-2.426.028-.705-.018-.716-1.061-.012-1.095m-.048-4.178c.583-.035 1.167-.069 1.751-.104.64-.038.651 1.017.011.994-.584-.022-1.168-.043-1.752-.064-.533-.02-.54-.794-.01-.826m.361-3.761c.684-.007.695 1.054.012 1.062-.684.008-.695-1.054-.012-1.062m.559-3.27c.103.055.206.109.309.164.297.158.303.621.009.785-.102.057-.203.114-.305.171-.425.239-.976-.046-.982-.549-.006-.502.539-.8.969-.571m18.53-26.653c-13.006-1.066-22.967 17.306-24.186 29.621-.716 7.222.248 15.834 4.563 21.886 4.136 5.803 12.349 10.522 19.551 9.722 6.466-.719 11.953-3.054 16.108-8.106 4.585-5.577 6.282-13.246 6.082-20.37-.352-12.547-7.323-31.538-22.118-32.753" fill="#fff" transform="matrix(5.55556 0 0 5.55556 215.59391984 255.73556404)"/><g fill="#231f20"><path d="m0 42.685c-4.155 5.053-9.642 7.388-16.108 8.106-7.202.801-15.414-3.919-19.551-9.722-4.315-6.051-5.279-14.663-4.563-21.886 1.22-12.315 11.18-30.687 24.186-29.62 14.795 1.214 21.766 20.205 22.118 32.753.2 7.123-1.497 14.793-6.082 20.369m-16.049-54.334c-11.672-.264-19.807 11.129-23.048 20.702-3.809 11.252-4.11 27.053 5.287 35.781 8.338 7.744 20.644 9.764 30.366 3.015 9.505-6.599 11.785-19.995 10.228-30.661-1.731-11.861-9.143-28.529-22.833-28.837" transform="matrix(5.55556 0 0 5.55556 231.0439322 64.73541124)"/><path d="m3.886-13.417c.164-.518.985-.364.841.177-1.316 4.942-1.026 9.479-.841 14.498.016.436-.621.561-.756.137-1.482-4.647-.681-10.259.756-14.812" transform="matrix(-4.62157591948 3.08306913312 3.08306913312 4.62157591948 229.67726444 78.65208904)"/><path d="m0 .938c.131.467.198.949.468 1.361.24.368.907.345.999-.142.207-1.087-.508-2.333-1.035-3.245-.371-.641-1.27-.065-.968.581.218.467.397.948.536 1.445" transform="matrix(5.55556 0 0 5.55556 224.9050384 116.06878564)"/><path d="m0 1.281c.824-.01.811-1.29-.015-1.28-.823.009-.81 1.289.015 1.28" transform="matrix(5.55556 0 0 5.55556 237.84393764 146.84658804)"/><path d="m-3.21-3.394c.801 1.874.77 4.277.806 6.282.011.521-.741.571-.806.055-.25-2.012-.905-4.132-.899-6.151.001-.526.69-.674.899-.186" transform="matrix(-.44452757784 -5.53774887464 -5.53774887464 .44452757784 63.3771314 272.72446652)"/><path d="m-3.06-2.954c.174-.454.767-.172.748.235-.096 2.15-.62 4.273-.748 6.431-.022.352-.598.326-.618-.021-.124-2.172-.168-4.587.618-6.645" transform="matrix(.87587292292 -5.48608216664 -5.48608216664 -.87587292292 66.02713352 251.83556092)"/><path d="m-1.904-1.645c.262-.386.797-.17.822.258.07 1.208-.505 2.523-.822 3.68-.209.763-1.382.394-1.173-.369.317-1.158.494-2.565 1.173-3.569" transform="matrix(1.6011679476 -5.31982092252 -5.31982092252 -1.6011679476 54.13823512 231.22443332)"/><path d="m-1.224-.795c.337-.62 1.241-.213.998.451-.28.766-.636 1.481-.998 2.211-.313.631-1.264.203-.998-.45.309-.756.609-1.494.998-2.212" transform="matrix(2.22742955972 -5.08948184936 -5.08948184936 -2.22742955972 46.39378448 215.02442036)"/><path d="m.879-.584c.293.505.587 1.01.881 1.515.323.554-.613 1.041-.881.459-.244-.531-.489-1.063-.734-1.594-.221-.482.465-.84.734-.38" transform="matrix(2.61759653852 4.90024836464 4.90024836464 -2.61759653852 34.51877498 192.63551356)"/><path d="m0 1.061c.683-.008.671-1.069-.012-1.062-.683.008-.672 1.07.012 1.062" transform="matrix(5.55556 0 0 5.55556 35.975998368 172.99660896)"/><path d="m0 1.11c.102-.057.203-.114.305-.171.294-.164.288-.627-.009-.785-.103-.055-.206-.109-.309-.164-.43-.229-.975.069-.969.571.006.503.557.788.982.549" transform="matrix(5.55556 0 0 5.55556 39.08266752 154.8799278)"/><path d="m-.923-1.298c.374.408.602.875.866 1.358.302.555-.539.917-.866.416-.278-.427-.556-.815-.725-1.298-.155-.446.371-.863.725-.476" transform="matrix(-2.461946414 -4.98027065088 -4.98027065088 2.461946414 73.52713952 304.9356034)"/><path d="m.412-1.462c.355-.483 1.221.059.899.579-.255.409-.468.942-.899 1.186-.367.207-.813-.057-.754-.491.066-.496.464-.881.754-1.274" transform="matrix(-3.55658062304 4.26789785876 4.26789785876 3.55658062304 105.19938708 323.185618)"/></g></g></svg>

<?xml version="1.0" encoding="UTF-8" standalone="no"?>
<!DOCTYPE svg PUBLIC "-//W3C//DTD SVG 1.1//EN" "http://www.w3.org/Graphics/SVG/1.1/DTD/svg11.dtd">
<svg width="100%" height="100%" viewBox="0 0 272 354" version="1.1" xmlns="http://www.w3.org/2000/svg" xmlns:xlink="http://www.w3.org/1999/xlink" xml:space="preserve" xmlns:serif="http://www.serif.com/" style="fill-rule:evenodd;clip-rule:evenodd;stroke-linejoin:round;stroke-miterlimit:2;">
    <g transform="matrix(1,0,0,1,-4149.43,-7316.11)">
        <g transform="matrix(5.55556,0,0,5.55556,3631.89,4783.46)">
            <g transform="matrix(1,0,0,1,131.964,501.909)">
                <path d="M0,-28.671C-2.631,-32.949 -4.907,-36.885 -8.745,-40.265C-9.166,-40.636 -8.568,-41.22 -8.144,-40.879C-4.421,-37.89 -0.641,-33.665 0.705,-28.978C0.828,-28.55 0.229,-28.299 0,-28.671M2.107,-26.229C2.635,-25.317 3.35,-24.07 3.143,-22.983C3.05,-22.496 2.384,-22.474 2.144,-22.841C1.874,-23.254 1.807,-23.735 1.676,-24.202C1.537,-24.699 1.358,-25.18 1.14,-25.648C0.838,-26.293 1.736,-26.869 2.107,-26.229M3.99,-19.599C4.815,-19.608 4.828,-18.328 4.004,-18.318C3.18,-18.309 3.166,-19.589 3.99,-19.599M-19.903,12.652C-20.366,12.827 -20.912,12.649 -21.39,12.582C-21.995,12.498 -21.857,11.486 -21.259,11.522C-20.771,11.551 -20.221,11.491 -19.796,11.758C-19.426,11.991 -19.509,12.502 -19.903,12.652M-23.873,6.897C-25.886,7.065 -28.051,6.581 -30.077,6.493C-30.597,6.471 -30.606,5.717 -30.086,5.685C-28.084,5.561 -25.692,5.338 -23.76,5.986C-23.256,6.156 -23.35,6.854 -23.873,6.897M-24.106,9.969C-24.613,10.032 -25.084,9.954 -25.59,9.894C-26.184,9.823 -26.233,8.909 -25.601,8.933C-25.051,8.955 -24.531,8.954 -24,9.108C-23.496,9.254 -23.637,9.911 -24.106,9.969M-31.071,1.735C-28.919,1.948 -26.74,1.766 -24.602,2.009C-24.197,2.055 -24.012,2.685 -24.488,2.786C-26.644,3.237 -29.021,2.813 -31.147,2.348C-31.486,2.274 -31.422,1.7 -31.071,1.735M-31.806,-3.25C-30.608,-3.22 -29.183,-3.392 -28.045,-2.976C-27.644,-2.829 -27.591,-2.254 -28.036,-2.115C-29.193,-1.754 -30.592,-1.99 -31.792,-2.02C-32.583,-2.04 -32.598,-3.27 -31.806,-3.25M-32.657,-6.955C-31.842,-6.994 -31.046,-7.034 -30.231,-6.984C-29.526,-6.94 -29.516,-5.948 -30.219,-5.888C-31.032,-5.819 -31.829,-5.84 -32.645,-5.86C-33.35,-5.878 -33.361,-6.921 -32.657,-6.955M-32.705,-11.133C-32.122,-11.168 -31.538,-11.202 -30.954,-11.237C-30.314,-11.275 -30.303,-10.22 -30.943,-10.243C-31.527,-10.265 -32.111,-10.286 -32.695,-10.307C-33.228,-10.327 -33.235,-11.101 -32.705,-11.133M-32.344,-14.894C-31.66,-14.901 -31.649,-13.84 -32.332,-13.832C-33.016,-13.824 -33.027,-14.886 -32.344,-14.894M-31.785,-18.164C-31.682,-18.109 -31.579,-18.055 -31.476,-18C-31.179,-17.842 -31.173,-17.379 -31.467,-17.215C-31.569,-17.158 -31.67,-17.101 -31.772,-17.044C-32.197,-16.805 -32.748,-17.09 -32.754,-17.593C-32.76,-18.095 -32.215,-18.393 -31.785,-18.164M-13.255,-44.817C-26.261,-45.883 -36.222,-27.511 -37.441,-15.196C-38.157,-7.974 -37.193,0.638 -32.878,6.69C-28.742,12.493 -20.529,17.212 -13.327,16.412C-6.861,15.693 -1.374,13.358 2.781,8.306C7.366,2.729 9.063,-4.94 8.863,-12.064C8.511,-24.611 1.54,-43.602 -13.255,-44.817" style="fill:white;fill-rule:nonzero;"/>
            </g>
        </g>
        <g transform="matrix(5.55556,0,0,5.55556,3631.89,4783.46)">
            <g transform="matrix(1,0,0,1,134.745,467.529)">
                <path d="M0,42.685C-4.155,47.738 -9.642,50.073 -16.108,50.791C-23.31,51.592 -31.522,46.872 -35.659,41.069C-39.974,35.018 -40.938,26.406 -40.222,19.183C-39.002,6.868 -29.042,-11.504 -16.036,-10.437C-1.241,-9.223 5.73,9.768 6.082,22.316C6.282,29.439 4.585,37.109 0,42.685M-16.049,-11.649C-27.721,-11.913 -35.856,-0.52 -39.097,9.053C-42.906,20.305 -43.207,36.106 -33.81,44.834C-25.472,52.578 -13.166,54.598 -3.444,47.849C6.061,41.25 8.341,27.854 6.784,17.188C5.053,5.327 -2.359,-11.341 -16.049,-11.649" style="fill:rgb(35,31,32);fill-rule:nonzero;"/>
            </g>
        </g>
        <g transform="matrix(5.55556,0,0,5.55556,3631.89,4783.46)">
            <g transform="matrix(-0.831883,0.554952,0.554952,0.831883,134.499,470.034)">
                <path d="M3.886,-13.417C4.05,-13.935 4.871,-13.781 4.727,-13.24C3.411,-8.298 3.701,-3.761 3.886,1.258C3.902,1.694 3.265,1.819 3.13,1.395C1.648,-3.252 2.449,-8.864 3.886,-13.417" style="fill:rgb(35,31,32);fill-rule:nonzero;"/>
            </g>
        </g>
        <g transform="matrix(5.55556,0,0,5.55556,3631.89,4783.46)">
            <g transform="matrix(1,0,0,1,133.64,476.769)">
                <path d="M0,0.938C0.131,1.405 0.198,1.887 0.468,2.299C0.708,2.667 1.375,2.644 1.467,2.157C1.674,1.07 0.959,-0.176 0.432,-1.088C0.061,-1.729 -0.838,-1.153 -0.536,-0.507C-0.318,-0.04 -0.139,0.441 0,0.938" style="fill:rgb(35,31,32);fill-rule:nonzero;"/>
            </g>
        </g>
        <g transform="matrix(5.55556,0,0,5.55556,3631.89,4783.46)">
            <g transform="matrix(1,0,0,1,135.969,482.309)">
                <path d="M0,1.281C0.824,1.271 0.811,-0.009 -0.015,0.001C-0.838,0.01 -0.825,1.29 0,1.281" style="fill:rgb(35,31,32);fill-rule:nonzero;"/>
            </g>
        </g>
        <g transform="matrix(5.55556,0,0,5.55556,3631.89,4783.46)">
            <g transform="matrix(-0.0800149,-0.996794,-0.996794,0.0800149,104.565,504.967)">
                <path d="M-3.21,-3.394C-2.409,-1.52 -2.44,0.883 -2.404,2.888C-2.393,3.409 -3.145,3.459 -3.21,2.943C-3.46,0.931 -4.115,-1.189 -4.109,-3.208C-4.108,-3.734 -3.419,-3.882 -3.21,-3.394" style="fill:rgb(35,31,32);fill-rule:nonzero;"/>
            </g>
        </g>
        <g transform="matrix(5.55556,0,0,5.55556,3631.89,4783.46)">
            <g transform="matrix(0.157657,-0.987494,-0.987494,-0.157657,105.042,501.207)">
                <path d="M-3.06,-2.954C-2.886,-3.408 -2.293,-3.126 -2.312,-2.719C-2.408,-0.569 -2.932,1.554 -3.06,3.712C-3.082,4.064 -3.658,4.038 -3.678,3.691C-3.802,1.519 -3.846,-0.896 -3.06,-2.954" style="fill:rgb(35,31,32);fill-rule:nonzero;"/>
            </g>
        </g>
        <g transform="matrix(5.55556,0,0,5.55556,3631.89,4783.46)">
            <g transform="matrix(0.28821,-0.957567,-0.957567,-0.28821,102.902,497.497)">
                <path d="M-1.904,-1.645C-1.642,-2.031 -1.107,-1.815 -1.082,-1.387C-1.012,-0.179 -1.587,1.136 -1.904,2.293C-2.113,3.056 -3.286,2.687 -3.077,1.924C-2.76,0.766 -2.583,-0.641 -1.904,-1.645" style="fill:rgb(35,31,32);fill-rule:nonzero;"/>
            </g>
        </g>
        <g transform="matrix(5.55556,0,0,5.55556,3631.89,4783.46)">
            <g transform="matrix(0.400937,-0.916106,-0.916106,-0.400937,101.508,494.581)">
                <path d="M-1.224,-0.795C-0.887,-1.415 0.017,-1.008 -0.226,-0.344C-0.506,0.422 -0.862,1.137 -1.224,1.867C-1.537,2.498 -2.488,2.07 -2.222,1.417C-1.913,0.661 -1.613,-0.077 -1.224,-0.795" style="fill:rgb(35,31,32);fill-rule:nonzero;"/>
            </g>
        </g>
        <g transform="matrix(5.55556,0,0,5.55556,3631.89,4783.46)">
            <g transform="matrix(0.471167,0.882044,0.882044,-0.471167,99.3705,490.551)">
                <path d="M0.879,-0.584C1.172,-0.079 1.466,0.426 1.76,0.931C2.083,1.485 1.147,1.972 0.879,1.39C0.635,0.859 0.39,0.327 0.145,-0.204C-0.076,-0.686 0.61,-1.044 0.879,-0.584" style="fill:rgb(35,31,32);fill-rule:nonzero;"/>
            </g>
        </g>
        <g transform="matrix(5.55556,0,0,5.55556,3631.89,4783.46)">
            <g transform="matrix(1,0,0,1,99.6328,487.016)">
                <path d="M0,1.061C0.683,1.053 0.671,-0.008 -0.012,-0.001C-0.695,0.007 -0.684,1.069 0,1.061" style="fill:rgb(35,31,32);fill-rule:nonzero;"/>
            </g>
        </g>
        <g transform="matrix(5.55556,0,0,5.55556,3631.89,4783.46)">
            <g transform="matrix(1,0,0,1,100.192,483.755)">
                <path d="M0,1.11C0.102,1.053 0.203,0.996 0.305,0.939C0.599,0.775 0.593,0.312 0.296,0.154C0.193,0.099 0.09,0.045 -0.013,-0.01C-0.443,-0.239 -0.988,0.059 -0.982,0.561C-0.976,1.064 -0.425,1.349 0,1.11" style="fill:rgb(35,31,32);fill-rule:nonzero;"/>
            </g>
        </g>
        <g transform="matrix(5.55556,0,0,5.55556,3631.89,4783.46)">
            <g transform="matrix(-0.44315,-0.896448,-0.896448,0.44315,106.392,510.765)">
                <path d="M-0.923,-1.298C-0.549,-0.89 -0.321,-0.423 -0.057,0.06C0.245,0.615 -0.596,0.977 -0.923,0.476C-1.201,0.049 -1.479,-0.339 -1.648,-0.822C-1.803,-1.268 -1.277,-1.685 -0.923,-1.298" style="fill:rgb(35,31,32);fill-rule:nonzero;"/>
            </g>
        </g>
        <g transform="matrix(5.55556,0,0,5.55556,3631.89,4783.46)">
            <g transform="matrix(-0.640184,0.768221,0.768221,0.640184,112.093,514.05)">
                <path d="M0.412,-1.462C0.767,-1.945 1.633,-1.403 1.311,-0.883C1.056,-0.474 0.843,0.059 0.412,0.303C0.045,0.51 -0.401,0.246 -0.342,-0.188C-0.276,-0.684 0.122,-1.069 0.412,-1.462" style="fill:rgb(35,31,32);fill-rule:nonzero;"/>
            </g>
        </g>
    </g>
</svg>
